public/img/svgs/icons/search.svg

<svg fill="none" xmlns="http://www.w3.org/2000/svg" viewBox="0 0 24 24">
  <g clip-path="url(#clip0)" stroke="#2B2F51" stroke-width="1.5" stroke-linecap="round" stroke-linejoin="round">
    <path d="M1.47205 13.3569c.94014 2.2121 2.72057 3.9602 4.94959 4.8597 2.22903.8994 4.72406.8766 6.93626-.0636 2.2121-.9401 3.9602-2.7206 4.8597-4.9496.8994-2.229.8766-4.72404-.0636-6.93621-.9401-2.21217-2.7205-3.96026-4.9496-4.85971-2.229-.899458-4.72403-.876596-6.9362.06355-2.21217.94015-3.96026 2.72058-4.85971 4.9496-.899457 2.22902-.876594 4.72407.06356 6.93627v0zM16.221 16.22l7.029 7.03"/>
  </g>
  <defs>
    <clipPath id="clip0">
      <path fill="#fff" d="M0 0h24v24H0z"/>
    </clipPath>
  </defs>
</svg>

<svg width="24" height="24" viewBox="0 0 24 24" fill="none" xmlns="http://www.w3.org/2000/svg">
<g clip-path="url(#clip0)">
<path d="M1.47205 13.357C2.4122 15.5691 4.19262 17.3172 6.42165 18.2167C8.65067 19.1161 11.1457 19.0933 13.3579 18.1531C15.57 17.213 17.3181 15.4326 18.2176 13.2035C19.117 10.9745 19.0942 8.47947 18.154 6.2673C17.2139 4.05513 15.4335 2.30704 13.2044 1.40759C10.9754 0.508133 8.48037 0.530996 6.2682 1.47114C4.05604 2.41129 2.30795 4.19172 1.40849 6.42074C0.50904 8.64977 0.531903 11.1448 1.47205 13.357V13.357Z" stroke="#2B2F51" stroke-width="1.5" stroke-linecap="round" stroke-linejoin="round"/>
<path d="M16.221 16.22L23.25 23.25" stroke="#2B2F51" stroke-width="1.5" stroke-linecap="round" stroke-linejoin="round"/>
</g>
<defs>
<clipPath id="clip0">
<rect width="24" height="24" fill="white"/>
</clipPath>
</defs>
</svg>
